X: 207
T: Wunu guandeng
%%abc-version 2.0
%%abcx-abcm2ps-target-version 5.9.1 (29 Sep 2008)
%%abc-creator hum2abc beta
%%abcx-conversion-date 2013/10/02 07:52:29
%%abc-edited-by Helmut Schaffrath
%%humdrum-veritas 931856782
%%humdrum-veritas-data 4024424928
%%continueall 1
%%barnumbers 0
L: 1/16
M: 2/4
K: D
d2 d eB4 [I:setbarnb 1]| 
F E F2A4 | 
d2> d2 B d B A | 
F2 E FA4 | 
A2> B2 A2 B2 | 
d6B d | 
A8 | 
D2> E2 F2 F2 | 
z2 E FE4 | 
F2> E2 F2 F2 | 
d2 B dA4 |]  



